src/assets/icons/pinterest.svg

<?xml version="1.0" encoding="UTF-8" standalone="no"?>
<svg width="46px" height="46px" viewBox="0 0 46 46" version="1.1" xmlns="http://www.w3.org/2000/svg" xmlns:xlink="http://www.w3.org/1999/xlink" xmlns:sketch="http://www.bohemiancoding.com/sketch/ns">
    <!-- Generator: Sketch 3.3.3 (12081) - http://www.bohemiancoding.com/sketch -->
    <title>Pinterest</title>
    <desc>Created with Sketch.</desc>
    <defs></defs>
    <g id="Page-1" stroke-width="1" fill-rule="evenodd" sketch:type="MSPage">
        <g id="Pinterest" sketch:type="MSLayerGroup">
            <circle id="Oval-1" stroke="currentColor" sketch:type="MSShapeGroup" cx="22.8198062" cy="22.864625" r="22"></circle>
            <path d="M22.8201862,10.864625 C16.1933375,10.864625 10.8201862,16.2370163 10.8201862,22.864625 C10.8201862,27.777948 13.7748684,31.9992483 18.0030091,33.8552828 C17.969187,33.0173311 17.9969287,32.0114091 18.212022,31.0997328 C18.4426962,30.1253527 19.7560572,24.5610496 19.7560572,24.5610496 C19.7560572,24.5610496 19.3726136,23.7949224 19.3726136,22.6624525 C19.3726136,20.8843229 20.4032371,19.556141 21.6869563,19.556141 C22.7783836,19.556141 23.3054761,20.3758515 23.3054761,21.3574521 C23.3054761,22.4549597 22.605853,24.096281 22.2459708,25.6163747 C21.9453722,26.8890732 22.8840301,27.9272972 24.1400076,27.9272972 C26.4133077,27.9272972 27.9448022,25.0071971 27.9448022,21.5474638 C27.9448022,18.9173216 26.173513,16.9488002 22.9516743,16.9488002 C19.3114298,16.9488002 17.04383,19.6633076 17.04383,22.6955146 C17.04383,23.740959 17.352029,24.4782045 17.8350388,25.0489997 C18.0569724,25.3115959 18.0877543,25.4168624 18.0075694,25.7178409 C17.9498058,25.9386346 17.8175577,26.4702873 17.7628343,26.6808203 C17.6830294,26.9848391 17.4367742,27.0935258 17.1620173,26.9814189 C15.4857339,26.2969967 14.7047857,24.4607234 14.7047857,22.3968162 C14.7047857,18.9880059 17.579663,14.9008539 23.2811546,14.9008539 C27.8623371,14.9008539 30.877443,18.2161783 30.877443,21.7747178 C30.877443,26.4820681 28.2606017,29.9988049 24.4029838,29.9988049 C23.1074839,29.9988049 21.8887487,29.2984218 21.471483,28.5030327 C21.471483,28.5030327 20.7749,31.2680832 20.6270709,31.8016361 C20.3728353,32.7269932 19.8746245,33.6515902 19.4193565,34.3724947 C20.498623,34.6909543 21.6386933,34.864625 22.8201862,34.864625 C29.4466548,34.864625 34.8194261,29.4918537 34.8194261,22.864625 C34.8194261,16.2370163 29.4466548,10.864625 22.8201862,10.864625" id="Fill-1" fill="currentColor" sketch:type="MSShapeGroup"></path>
        </g>
    </g>
</svg>

<svg width="46" height="46" xmlns="http://www.w3.org/2000/svg"><g fill-rule="evenodd"><circle stroke="currentColor" cx="22.82" cy="22.865" r="22"/><path d="M22.82 10.865c-6.627 0-12 5.372-12 12 0 4.913 2.955 9.134 7.183 10.99-.034-.838-.006-1.844.209-2.755l1.544-6.539s-.383-.766-.383-1.899c0-1.778 1.03-3.106 2.314-3.106 1.091 0 1.618.82 1.618 1.801 0 1.098-.7 2.74-1.059 4.26-.3 1.272.638 2.31 1.894 2.31 2.273 0 3.805-2.92 3.805-6.38 0-2.63-1.771-4.598-4.993-4.598-3.64 0-5.908 2.714-5.908 5.747 0 1.045.308 1.782.791 2.353.222.263.253.368.173.669-.058.22-.19.752-.245.963-.08.304-.326.413-.601.3-1.676-.684-2.457-2.52-2.457-4.584 0-3.409 2.875-7.496 8.576-7.496 4.581 0 7.596 3.315 7.596 6.874 0 4.707-2.616 8.224-6.474 8.224-1.296 0-2.514-.7-2.932-1.496 0 0-.696 2.765-.844 3.299-.254.925-.752 1.85-1.208 2.57 1.08.319 2.22.493 3.401.493 6.627 0 12-5.373 12-12 0-6.628-5.373-12-12-12" fill="currentColor"/></g></svg>
